packages/katcn/src/icons/svg/arrow9-solid.svg

<svg width="24" height="25" viewBox="0 0 24 25" fill="none" xmlns="http://www.w3.org/2000/svg">
<path d="M22.9032 8.80072L20.742 2.51263C20.5455 1.81396 19.956 1.41472 19.2684 1.3149C18.5807 1.21509 17.893 1.51453 17.5 2.11339L16.9106 3.01169C15.437 2.2132 13.8652 1.81396 12.1951 1.81396C8.16724 1.81396 4.6306 4.30923 3.05876 8.10204C2.96052 8.40147 2.96051 8.80072 3.25524 9.10015C3.45172 9.39958 3.84468 9.59921 4.23764 9.59921H7.0866C7.77428 9.59921 8.26548 9.39958 8.5602 9.00034C9.34612 7.80261 10.7215 7.00412 12.1951 7.00412C12.7845 7.00412 13.374 7.10393 13.8652 7.30356L13.1775 8.40147C12.7845 9.00034 12.7845 9.69902 13.0792 10.2979C13.374 10.8967 14.0616 11.296 14.6511 11.296L21.1349 11.1962C21.4296 11.1962 21.7244 11.0964 21.9208 10.9966C22.805 10.6971 23.198 9.69902 22.9032 8.80072Z" fill="black"/>
<path d="M20.6949 14.0782H17.7045C16.9827 14.0782 16.4671 14.2762 16.1577 14.6722C15.2297 15.8603 13.7861 16.5534 12.2393 16.5534C11.6206 16.5534 11.0019 16.4544 10.4863 16.2564L11.2081 15.1673C11.6206 14.5732 11.6206 13.8801 11.3113 13.2861C11.0019 12.692 10.2801 12.296 9.66139 12.296L2.85569 12.395C2.54634 12.395 2.23699 12.494 2.03076 12.593C1.20583 12.9891 0.793359 13.9792 1.10271 14.8702L3.37128 21.1079C3.57751 21.8009 4.19621 22.197 4.91802 22.296C5.02114 22.296 5.12426 22.296 5.22737 22.296C5.84607 22.296 6.46477 21.999 6.77412 21.5039L7.39282 20.6128C8.93957 21.4049 10.5894 21.8009 12.3424 21.8009C16.5702 21.8009 20.2824 19.3257 21.9323 15.5633C22.0354 15.1673 22.0354 14.7712 21.8292 14.4742C21.4167 14.1772 21.1073 14.0782 20.6949 14.0782Z" fill="black"/>
</svg>

<svg xmlns="http://www.w3.org/2000/svg" fill="none" viewBox="0 0 24 25"><path fill="#000" d="m22.903 8.8-2.161-6.287c-.197-.699-.786-1.098-1.474-1.198s-1.375.2-1.768.798l-.59.899a9.75 9.75 0 0 0-4.715-1.198c-4.028 0-7.564 2.495-9.136 6.288-.098.3-.098.699.196.998.197.3.59.5.983.5h2.849q1.03 0 1.473-.6c.786-1.197 2.162-1.996 3.635-1.996.59 0 1.179.1 1.67.3L13.178 8.4c-.394.6-.394 1.298-.099 1.897s.983.998 1.572.998l6.484-.1c.295 0 .59-.1.786-.2.884-.299 1.277-1.297.982-2.195m-2.208 5.278h-2.99q-1.083 0-1.547.594c-.928 1.188-2.372 1.881-3.919 1.881-.618 0-1.237-.099-1.753-.297l.722-1.089c.413-.594.413-1.287.103-1.88-.31-.595-1.03-.991-1.65-.991l-6.805.099c-.31 0-.619.099-.825.198-.825.396-1.238 1.386-.928 2.277l2.268 6.238c.207.693.825 1.089 1.547 1.188h.31c.618 0 1.237-.297 1.546-.792l.619-.891a10.7 10.7 0 0 0 4.95 1.188c4.227 0 7.94-2.475 9.59-6.238.102-.396.102-.792-.104-1.089-.412-.297-.722-.396-1.134-.396"/></svg>
